dist/assets/img/header/main-block/icons/04.svg

<svg width="46" height="46" viewBox="0 0 46 46" fill="none" xmlns="http://www.w3.org/2000/svg">
<path d="M45.5 34.0017L45.0095 33.7137C44.972 33.692 41.2243 31.4683 40.2927 28.7698L40.085 28.172L39.701 28.6737C39.689 28.6895 39.1565 29.348 37.6663 30.1205C36.563 23.8407 32.81 16.3438 27.878 13.1473C29.288 13.2613 30.7025 13.1442 32.0675 12.6478C32.8895 12.3493 32.5347 11.0097 31.7052 11.3127C30.5862 11.72 29.465 11.831 28.346 11.774C31.0932 9.25625 33.2503 5.3975 33.2503 2.576C33.2503 1.898 33.2502 0.63575 32.2453 0.63575C31.8417 0.63575 31.5155 0.88775 31.0647 1.23575C30.3732 1.769 29.3293 2.576 27.7955 2.576C27.2113 2.576 26.1418 1.9595 25.2822 1.4645C24.2435 0.86675 23.5798 0.5 23.0217 0.5C22.0977 0.5 20.7395 1.247 19.541 1.90625C19.0535 2.174 18.3868 2.5415 18.2488 2.57675C16.5118 2.57675 15.503 1.77575 14.834 1.2455C14.444 0.935 14.1613 0.71 13.784 0.71C12.7955 0.71 12.7955 1.89575 12.7955 3.269C12.7955 5.9195 14.8145 9.41825 17.4583 11.7695C15.7925 11.8887 14.15 12.392 12.9957 13.5103C12.3582 14.1267 13.3242 15.1047 13.9595 14.4897C14.9187 13.5597 16.1765 13.1615 17.522 13.0842C17.5602 13.2215 17.6068 13.3565 17.6637 13.4893C12.0268 17.54 8.0225 27.1587 8.0225 33.6522C8.0225 34.2927 8.072 34.8725 8.1485 35.4185C6.695 34.7728 6.16475 34.2065 6.15425 34.1937L5.76725 33.7475L5.57675 34.31C4.7345 36.788 1.073 38.9375 1.03625 38.9593L0.5 39.2705L1.04525 39.5653C1.2365 39.6688 1.42625 39.7595 1.6175 39.8577L1.2725 40.097L1.45475 42.377L15.7445 45.5L21.1625 42.0343C21.7092 42.0373 22.2628 42.0387 22.826 42.0387L29.159 45.5L43.4757 41V38.5933L43.097 38.366C43.286 38.246 43.475 38.1238 43.6632 37.9977L44.165 37.6625L44.0548 37.6085L44.693 37.4338L44.801 34.9318L44.432 34.67C44.6285 34.5522 44.8242 34.4323 45.0208 34.3078L45.5 34.0017ZM14.1597 3.269C14.1597 2.936 14.1643 2.6765 14.171 2.47475C14.2858 2.56475 14.4193 2.663 14.5618 2.76425C14.999 3.81125 15.8263 5.31875 17.2288 6.26825C18.9328 7.42325 18.7062 6.09575 19.6152 4.88375C20.5243 3.6725 21.1392 3.038 22.6618 6.1535C23.3255 7.51175 24.4318 3.716 25.4832 3.16175C25.7615 3.31325 26.039 3.45425 26.3113 3.57425C28.1968 6.64025 29.0705 5.684 30.7453 3.1355C31.2057 2.8655 31.5837 2.576 31.8845 2.34425C31.886 2.414 31.8875 2.49125 31.8875 2.5775C31.8875 4.985 29.9202 8.438 27.5112 10.6903C27.3975 10.4012 27.2346 10.134 27.0298 9.9005C26.057 8.79875 24.5368 10.0205 23.816 10.8222C22.5373 10.4113 20.4538 9.2795 19.0963 9.9275C18.7582 10.0843 18.4477 10.2948 18.1768 10.5507C15.9567 8.52725 14.1597 5.606 14.1597 3.269ZM26.3127 11.4995C25.9765 11.4282 25.6421 11.3482 25.31 11.2595C25.7285 10.8988 26.1125 10.7728 26.2738 11.309C26.291 11.3675 26.3015 11.4342 26.3127 11.4995ZM20.6127 11.9653C20.3645 11.918 20.1095 11.8752 19.847 11.8415C19.648 11.7167 19.4531 11.5854 19.2628 11.4478C19.9482 10.988 21.1303 11.2325 22.2598 11.6157C21.7025 11.672 21.1528 11.7935 20.6127 11.9653ZM20.9533 13.9452C20.5333 14.0503 20.0758 14.0083 19.6805 13.8507C19.841 13.766 20.003 13.6925 20.165 13.6182C20.4275 13.745 20.69 13.8507 20.9533 13.9452ZM7.0805 41.2843C5.29166 40.7662 3.55591 40.0799 1.8965 39.2345C2.91425 38.5655 5.13125 36.9478 6.03275 35.0037C6.65075 35.489 8.07725 36.374 10.8553 37.0535C10.808 37.13 10.7502 37.2118 10.6947 37.292C8.32325 36.671 6.97475 35.8857 6.953 35.8722L6.626 35.6772L6.46925 36.0275C6.263 36.4865 5.77925 36.5555 5.51 36.5555C5.435 36.5555 5.38475 36.5503 5.378 36.5495L5.11025 36.5105L5.01275 36.767C4.81325 37.2905 3.99425 37.9745 3.69425 38.1942L3.19325 38.5618L3.76625 38.7965C3.97925 38.8835 4.037 38.9637 4.04 38.9847C4.0475 39.0365 3.95675 39.173 3.86 39.2517L3.4235 39.6035L3.93125 39.8382C4.9715 40.3182 6.14975 40.7157 7.328 41.0435C7.23425 41.1357 7.15325 41.2145 7.0805 41.2843ZM13.1285 38.4897C14.177 38.6367 15.3387 38.7298 16.6077 38.7298H16.6085C16.8725 38.7298 17.1403 38.7253 17.4132 38.717C17.4314 38.7736 17.4574 38.8274 17.4905 38.8767C17.5572 38.978 17.6472 39.062 17.7612 39.1273L15.8472 40.763C15.8108 40.7614 15.7743 40.7607 15.7377 40.7607C14.885 40.7607 14.249 41.0742 13.9437 41.6322C12.7872 41.4847 11.6361 41.2979 10.4923 41.072C11.4117 40.2538 12.2915 39.3921 13.1285 38.4897ZM4.61675 39.3875C4.69175 39.2458 4.7405 39.074 4.71425 38.8865C4.68932 38.7173 4.60822 38.5615 4.484 38.444C4.82075 38.1553 5.285 37.7098 5.54 37.2485C6.11975 37.2402 6.59825 37.0205 6.89975 36.632C7.4075 36.8975 8.55125 37.4338 10.241 37.8988C9.55025 38.765 8.6195 39.7475 7.89575 40.478C6.76775 40.1795 5.6315 39.8195 4.61675 39.3875ZM15.305 42.5443L15.1512 42.545C14.5055 42.545 12.3658 42.4925 9.539 41.9038C9.638 41.8198 9.74075 41.7335 9.836 41.651C12.1295 42.1302 13.979 42.3357 14.1178 42.3515L14.3923 42.3807L14.477 42.1145C14.6622 41.54 15.3455 41.4552 15.737 41.4552C15.8442 41.4552 15.9155 41.462 15.9237 41.4627L16.0693 41.4785L19.394 38.6375L18.5052 38.6082C18.2083 38.5978 18.083 38.531 18.0522 38.4852L18.2405 37.9925L17.72 38.0143C17.3405 38.0308 16.97 38.039 16.6077 38.039H16.607C15.56 38.039 14.5887 37.97 13.691 37.8612L13.8995 37.6152C15.7115 37.8575 17.8812 38.0068 20.501 37.988C19.8755 38.8655 18.3155 40.7307 15.305 42.5443ZM22.823 39.2855V40.6543C22.3962 40.6543 21.9808 40.6528 21.5743 40.6497L21.452 39.1092L20.4365 39.1917C21.1205 38.3833 21.4122 37.844 21.4385 37.7952L21.7137 37.2747L21.1325 37.2853C15.569 37.3872 11.9405 36.7243 9.65 35.9878C9.48275 35.3113 9.386 34.5462 9.386 33.653C9.386 27.5607 13.2792 18.3522 18.4482 14.6202C19.364 15.506 20.753 15.8937 22.073 15.032C22.3625 14.843 22.6145 14.5955 22.8507 14.3323C22.907 14.3338 22.9648 14.3465 23.0217 14.3465C23.2107 14.3465 23.4028 14.3308 23.594 14.3068C23.8363 14.4035 24.0732 14.501 24.293 14.5978C25.3452 15.0613 26.2438 14.7733 26.8573 14.1343C31.592 16.9993 35.3855 24.578 36.3838 30.704C34.2192 31.5695 30.7857 32.414 25.5163 32.5625C26.5557 31.9685 27.3358 30.9695 27.0553 29.657C26.7605 28.2695 25.601 27.8795 24.4002 27.8158C24.3973 27.164 24.3972 26.5138 24.4017 25.862C24.77 26.0248 25.1232 26.2122 25.4442 26.4125C26.0112 26.7687 26.5243 25.8455 25.961 25.4893C25.4726 25.1822 24.9514 24.9309 24.407 24.74C24.4145 23.9855 24.4182 23.2325 24.4182 22.4795C24.419 21.7895 23.3938 21.7895 23.3938 22.4795C23.3938 23.1418 23.3893 23.8032 23.3833 24.464C22.8375 24.3689 22.2803 24.3595 21.7318 24.4363C21.6426 23.9398 21.5345 23.447 21.4078 22.9587C21.2383 22.2943 20.2482 22.5755 20.42 23.2423C20.546 23.7215 20.6488 24.1985 20.7335 24.6823C20.69 24.6987 20.6427 24.707 20.6 24.7265C19.211 25.2762 18.3635 26.678 19.3797 27.9852C19.853 28.5942 20.4718 28.8403 21.149 28.922C21.1857 29.8242 21.209 30.7273 21.2352 31.6287C20.7815 31.334 20.3682 30.956 19.994 30.5563C19.5305 30.0673 18.8067 30.8225 19.2695 31.3108C19.8987 31.9805 20.5595 32.4868 21.2757 32.8108C21.308 33.581 21.3538 34.3535 21.4288 35.12C21.4948 35.8003 22.5208 35.804 22.454 35.12C22.3908 34.457 22.344 33.7926 22.3137 33.1273C22.7037 33.1947 23.1132 33.212 23.5482 33.1707C23.597 33.8802 23.654 34.5897 23.735 35.2992C23.7815 35.7057 24.17 35.8655 24.4565 35.783L24.3927 37.256C23.9412 37.2965 23.4807 37.334 23.0007 37.3655L22.4293 37.403L22.7337 37.895C22.7645 37.9445 23.1102 38.4912 23.882 39.287H22.823V39.2855ZM41.489 34.349C40.5462 34.7923 39.3538 35.1987 38.1388 35.5535C37.3918 34.7817 36.4362 33.752 35.723 32.8385C37.3123 32.357 38.2018 31.8605 38.603 31.5928C38.9202 31.8725 39.3403 32.018 39.8375 32.0173C40.0025 32.0173 40.1488 32.0015 40.2612 31.9835C40.6213 32.45 41.2017 32.9885 41.5648 33.3102C41.393 33.4865 41.3097 33.6815 41.3165 33.8923C41.3225 34.0723 41.3945 34.2253 41.489 34.349ZM36.1227 36.8135C36.2758 36.9485 36.434 37.0865 36.5952 37.226C33.5547 38.0322 31.292 38.12 30.7992 38.1283C27.6507 36.2075 26.0188 34.175 25.3895 33.26C28.0243 33.194 30.2023 32.9555 32.0188 32.627C32.0926 32.7177 32.1674 32.8077 32.243 32.897C30.783 33.1244 29.3115 33.2704 27.8352 33.3343L27.23 33.3597L27.563 33.869C27.5623 33.8698 27.4947 33.9958 27.0477 34.0827L26.321 34.2245L29.894 37.1173L30.0605 37.0723C30.0643 37.0715 30.3792 36.9867 30.7603 36.9867C31.31 36.9867 31.6858 37.154 31.8748 37.481L31.9948 37.688L32.228 37.6468C33.5344 37.4086 34.8333 37.1307 36.1227 36.8135ZM25.55 34.6092L24.6965 34.5628C24.6568 34.1367 24.617 33.7108 24.587 33.2848C24.737 33.5338 25.0445 34.0018 25.55 34.6092ZM24.494 31.8635C24.4448 30.8539 24.415 29.8435 24.4048 28.8328C24.5278 28.8372 24.6493 28.8485 24.7648 28.865C26.0907 29.066 26.4373 30.5405 25.4022 31.37C25.1322 31.5837 24.821 31.7405 24.494 31.8635ZM32.3232 36.9275C31.9872 36.5127 31.4525 36.2952 30.761 36.2952C30.4722 36.2952 30.218 36.3342 30.0575 36.3657L27.8113 34.5455C27.998 34.4383 28.124 34.3025 28.193 34.136C28.21 34.0946 28.223 34.0516 28.232 34.0077C30.0125 33.9102 31.5125 33.7325 32.7808 33.515C33.3958 34.2013 34.2995 35.1478 35.498 36.248C34.0257 36.5983 32.798 36.8382 32.3232 36.9275ZM23.3787 28.8597C23.393 29.9465 23.42 31.0362 23.4778 32.1222C23.381 32.1372 23.2858 32.156 23.1905 32.1658C22.868 32.2025 22.562 32.1755 22.271 32.102C22.2342 31.052 22.2102 29.9998 22.1705 28.949C22.574 28.9303 22.9827 28.8905 23.3787 28.8597ZM22.1188 27.911C22.0719 27.0869 21.9943 26.2648 21.8862 25.4465C22.3834 25.3782 22.8889 25.4039 23.3765 25.5222C23.3711 26.289 23.3699 27.0557 23.3728 27.8225C23.0435 27.8405 22.7308 27.872 22.4555 27.8967C22.3435 27.9055 22.2311 27.9102 22.1188 27.911ZM21.0897 27.7798C21.026 27.7625 20.963 27.749 20.8978 27.7273C20.5977 27.6255 20.326 27.4541 20.105 27.227C19.4645 26.6293 20.3435 26.0428 20.8978 25.7645C20.9848 26.432 21.0448 27.1055 21.0897 27.7798ZM29.3675 42.3792C26.1118 40.7158 24.365 38.867 23.6712 38.0105C24.17 37.973 24.6418 37.928 25.109 37.8807L30.4475 41.3457L42.155 38.1297C36.1175 41.7687 30.1528 42.323 29.3675 42.3792ZM39.0365 36.4618C38.9405 36.3657 38.8257 36.2518 38.69 36.1145C40.022 35.711 41.3105 35.243 42.2712 34.7285L42.8555 34.4143L42.263 34.1128C42.1302 34.0445 42.0005 33.9193 41.9983 33.872C41.9998 33.854 42.0522 33.758 42.2795 33.6275L42.713 33.3785L42.3275 33.0575C42.3155 33.0477 41.1133 32.0495 40.691 31.4067L40.5515 31.1968L40.3122 31.2665C40.31 31.2665 40.1045 31.3258 39.8375 31.3258C39.425 31.3265 39.116 31.1915 38.918 30.926L38.699 30.6357L38.4245 30.872C38.4103 30.884 37.5605 31.5807 35.2812 32.2393C35.2062 32.1311 35.1339 32.0211 35.0645 31.9093C37.8282 31.0715 39.2405 30.0575 39.8525 29.5025C40.835 31.628 43.1742 33.3402 44.1898 34.0115C42.5584 34.9987 40.8319 35.8196 39.0365 36.4618Z" fill="white"/>
</svg>

<svg width="46" height="46" fill="none" xmlns="http://www.w3.org/2000/svg"><path d="M45.5 34.002l-.49-.288c-.038-.022-3.786-2.246-4.717-4.944l-.208-.598-.384.502c-.012.015-.544.674-2.035 1.447-1.103-6.28-4.856-13.777-9.788-16.974 1.41.114 2.825-.003 4.19-.5.822-.298.467-1.637-.363-1.334-1.119.407-2.24.518-3.359.461 2.747-2.518 4.904-6.376 4.904-9.198 0-.678 0-1.94-1.005-1.94-.403 0-.73.252-1.18.6-.692.533-1.736 1.34-3.27 1.34-.584 0-1.653-.617-2.513-1.112C24.244.867 23.58.5 23.022.5c-.924 0-2.282.747-3.481 1.406-.488.268-1.154.636-1.292.67-1.737 0-2.746-.8-3.415-1.33-.39-.311-.673-.536-1.05-.536-.989 0-.989 1.186-.989 2.559 0 2.65 2.02 6.15 4.663 8.5-1.665.12-3.308.623-4.462 1.741-.638.617.328 1.595.963.98.96-.93 2.218-1.329 3.563-1.406.038.138.085.273.142.405-5.637 4.051-9.642 13.67-9.642 20.163 0 .64.05 1.22.127 1.767-1.454-.646-1.984-1.212-1.995-1.225l-.387-.447-.19.563c-.843 2.478-4.504 4.627-4.54 4.65l-.537.31.545.295c.192.104.381.195.573.293l-.346.239.183 2.28 14.29 3.123 5.418-3.466c.546.003 1.1.005 1.663.005l6.333 3.461L43.476 41v-2.407l-.379-.227c.189-.12.378-.242.566-.368l.502-.335-.11-.054.638-.175.108-2.502-.369-.262c.197-.118.392-.238.589-.362l.479-.306zM14.16 3.269c0-.333.004-.593.011-.794.115.09.248.188.39.29C15 3.81 15.827 5.318 17.23 6.267c1.704 1.155 1.477-.172 2.386-1.384.91-1.212 1.524-1.846 3.047 1.27.664 1.358 1.77-2.438 2.821-2.992.279.151.556.292.828.412 1.886 3.066 2.76 2.11 4.434-.438.46-.27.839-.56 1.14-.792l.002.234c0 2.407-1.967 5.86-4.376 8.112a2.692 2.692 0 00-.481-.79c-.973-1.101-2.493.12-3.214.922-1.279-.41-3.362-1.542-4.72-.894a3.457 3.457 0 00-.92.623c-2.22-2.024-4.016-4.945-4.016-7.282zm12.153 8.23a17.6 17.6 0 01-1.003-.24c.419-.36.803-.486.964.05.017.059.027.125.039.19zm-5.7.466c-.248-.047-.503-.09-.766-.123a10.692 10.692 0 01-.584-.394c.685-.46 1.867-.216 2.997.168a8.13 8.13 0 00-1.647.35zm.34 1.98c-.42.105-.877.063-1.273-.094.161-.085.323-.159.485-.233.262.127.525.233.788.327zM7.081 41.285a29.497 29.497 0 01-5.185-2.05c1.018-.67 3.235-2.287 4.137-4.231.618.485 2.044 1.37 4.822 2.05-.047.076-.105.158-.16.238-2.372-.621-3.72-1.406-3.742-1.42l-.327-.195-.157.35c-.206.46-.69.529-.959.529a1.27 1.27 0 01-.132-.006l-.268-.04-.097.257c-.2.523-1.019 1.207-1.319 1.427l-.5.368.572.235c.213.087.271.167.274.188.008.051-.083.188-.18.267l-.436.351.507.235c1.04.48 2.219.878 3.397 1.206l-.248.24zm6.048-2.795a25.023 25.023 0 004.284.227c.018.057.044.11.078.16a.785.785 0 00.27.25l-1.914 1.636a2.493 2.493 0 00-.11-.002c-.852 0-1.488.313-1.793.871a51.327 51.327 0 01-3.452-.56c.92-.818 1.8-1.68 2.636-2.582zm-8.512.898a.822.822 0 00.097-.502.762.762 0 00-.23-.442c.337-.289.801-.734 1.056-1.196.58-.008 1.058-.227 1.36-.616.507.266 1.651.802 3.341 1.267-.69.866-1.621 1.849-2.345 2.579-1.128-.299-2.264-.659-3.28-1.09zm10.688 3.156l-.154.001c-.646 0-2.785-.053-5.612-.641.099-.084.202-.17.297-.253 2.293.48 4.143.685 4.282.7l.274.03.085-.267c.185-.574.868-.659 1.26-.659.107 0 .178.007.187.008l.145.015 3.325-2.84-.889-.03c-.297-.01-.422-.077-.453-.123l.189-.492-.521.021c-.38.017-.75.025-1.112.025h-.001c-1.047 0-2.018-.069-2.916-.178l.208-.246c1.813.242 3.982.392 6.602.373-.626.877-2.186 2.743-5.196 4.556zm7.518-3.258v1.368c-.427 0-.842-.001-1.249-.004l-.122-1.54-1.016.082c.684-.809.976-1.348 1.003-1.397l.275-.52-.581.01c-5.564.102-9.192-.56-11.483-1.297a9.657 9.657 0 01-.264-2.335c0-6.092 3.893-15.3 9.062-19.033.916.886 2.305 1.274 3.625.412.29-.189.541-.437.778-.7.056.002.114.014.17.014.19 0 .382-.015.573-.04.242.098.48.195.699.292 1.052.463 1.95.175 2.564-.464 4.735 2.865 8.529 10.444 9.527 16.57-2.165.866-5.598 1.71-10.868 1.858 1.04-.593 1.82-1.592 1.54-2.905-.296-1.387-1.455-1.777-2.656-1.841a159.09 159.09 0 01.002-1.954c.368.163.721.35 1.042.55.567.357 1.08-.566.517-.923a7.716 7.716 0 00-1.554-.749c.008-.755.011-1.507.011-2.26.001-.69-1.024-.69-1.024 0 0 .662-.005 1.323-.01 1.984a5.322 5.322 0 00-1.652-.028c-.09-.496-.197-.989-.324-1.477-.17-.665-1.16-.383-.988.283.126.48.229.956.313 1.44-.043.017-.09.025-.133.045-1.389.55-2.237 1.951-1.22 3.258.473.61 1.092.855 1.769.937.037.902.06 1.805.086 2.707a6.849 6.849 0 01-1.241-1.073c-.463-.489-1.187.267-.724.755.629.67 1.29 1.176 2.006 1.5.032.77.078 1.542.153 2.309.066.68 1.092.684 1.025 0a40.339 40.339 0 01-.14-1.993c.39.068.8.085 1.234.044.049.71.106 1.419.187 2.128a.566.566 0 00.721.484l-.063 1.473c-.452.04-.912.078-1.392.11l-.572.037.305.492c.03.05.376.596 1.148 1.392h-1.059v-.002zm18.666-4.937c-.943.443-2.135.85-3.35 1.205-.747-.772-1.703-1.802-2.416-2.715 1.59-.482 2.479-.979 2.88-1.246.317.28.737.425 1.234.424.165 0 .312-.016.424-.034.36.467.94 1.006 1.304 1.327-.172.176-.255.371-.248.582a.79.79 0 00.172.457zm-5.366 2.465c.153.135.311.273.472.412-3.04.806-5.303.894-5.796.902-3.148-1.92-4.78-3.953-5.41-4.868 2.635-.066 4.813-.304 6.63-.633.074.09.148.18.224.27-1.46.227-2.932.373-4.408.437l-.605.026.333.509s-.068.127-.515.214l-.727.142 3.573 2.892.167-.045c.003 0 .318-.085.7-.085.549 0 .925.167 1.114.494l.12.207.233-.041a65.45 65.45 0 003.895-.834zM25.55 34.608l-.854-.046a55.04 55.04 0 01-.109-1.278c.15.249.457.717.963 1.324zm-1.056-2.746a78.55 78.55 0 01-.09-3.03c.124.004.245.016.36.032 1.327.201 1.673 1.676.638 2.505a3.34 3.34 0 01-.908.493zm7.83 5.065c-.337-.415-.871-.633-1.563-.633-.289 0-.543.04-.703.07l-2.247-1.82a.847.847 0 00.382-.409.717.717 0 00.039-.128c1.78-.098 3.28-.276 4.549-.493a39.85 39.85 0 002.717 2.733c-1.472.35-2.7.59-3.175.68zm-8.945-8.068c.014 1.087.041 2.176.099 3.262-.097.015-.192.034-.288.044-.322.037-.628.01-.919-.064-.037-1.05-.06-2.102-.1-3.153.403-.019.812-.059 1.208-.09zm-1.26-.949a33.239 33.239 0 00-.233-2.465 4.007 4.007 0 011.49.076c-.005.767-.006 1.534-.003 2.3-.33.018-.642.05-.918.075a4.73 4.73 0 01-.336.014zm-1.03-.131c-.063-.018-.126-.031-.191-.053a2.005 2.005 0 01-.793-.5c-.64-.598.238-1.184.793-1.462.087.667.147 1.34.192 2.015zm8.279 14.6c-3.256-1.664-5.003-3.513-5.697-4.37.499-.037.97-.082 1.438-.13l5.338 3.466 11.708-3.216c-6.038 3.639-12.002 4.193-12.788 4.25zm9.668-5.918l-.346-.348c1.332-.403 2.62-.871 3.581-1.386l.584-.314-.592-.301c-.133-.069-.262-.194-.265-.241.002-.018.054-.114.282-.245l.433-.248-.386-.322c-.011-.01-1.214-1.008-1.636-1.65l-.14-.21-.239.07c-.002 0-.207.059-.474.059-.413 0-.722-.134-.92-.4l-.219-.29-.274.236c-.015.012-.864.709-3.144 1.367a7.805 7.805 0 01-.216-.33c2.763-.837 4.175-1.851 4.788-2.406.982 2.125 3.321 3.837 4.337 4.508a28.484 28.484 0 01-5.154 2.45z" fill="#fff"/></svg>6.678 19.3797 27.9852C19.853 28.5942 20.4718 28.8403 21.149 28.922C21.1857 29.8242 21.209 30.7273 21.2352 31.6287C20.7815 31.334 20.3682 30.956 19.994 30.5563C19.5305 30.0673 18.8067 30.8225 19.2695 31.3108C19.8987 31.9805 20.5595 32.4868 21.2757 32.8108C21.308 33.581 21.3538 34.3535 21.4288 35.12C21.4948 35.8003 22.5208 35.804 22.454 35.12C22.3908 34.457 22.344 33.7926 22.3137 33.1273C22.7037 33.1947 23.1132 33.212 23.5482 33.1707C23.597 33.8802 23.654 34.5897 23.735 35.2992C23.7815 35.7057 24.17 35.8655 24.4565 35.783L24.3927 37.256C23.9412 37.2965 23.4807 37.334 23.0007 37.3655L22.4293 37.403L22.7337 37.895C22.7645 37.9445 23.1102 38.4912 23.882 39.287H22.823V39.2855ZM41.489 34.349C40.5462 34.7923 39.3538 35.1987 38.1388 35.5535C37.3918 34.7817 36.4362 33.752 35.723 32.8385C37.3123 32.357 38.2018 31.8605 38.603 31.5928C38.9202 31.8725 39.3403 32.018 39.8375 32.0173C40.0025 32.0173 40.1488 32.0015 40.2612 31.9835C40.6213 32.45 41.2017 32.9885 41.5648 33.3102C41.393 33.4865 41.3097 33.6815 41.3165 33.8923C41.3225 34.0723 41.3945 34.2253 41.489 34.349ZM36.1227 36.8135C36.2758 36.9485 36.434 37.0865 36.5952 37.226C33.5547 38.0322 31.292 38.12 30.7992 38.1283C27.6507 36.2075 26.0188 34.175 25.3895 33.26C28.0243 33.194 30.2023 32.9555 32.0188 32.627C32.0926 32.7177 32.1674 32.8077 32.243 32.897C30.783 33.1244 29.3115 33.2704 27.8352 33.3343L27.23 33.3597L27.563 33.869C27.5623 33.8698 27.4947 33.9958 27.0477 34.0827L26.321 34.2245L29.894 37.1173L30.0605 37.0723C30.0643 37.0715 30.3792 36.9867 30.7603 36.9867C31.31 36.9867 31.6858 37.154 31.8748 37.481L31.9948 37.688L32.228 37.6468C33.5344 37.4086 34.8333 37.1307 36.1227 36.8135ZM25.55 34.6092L24.6965 34.5628C24.6568 34.1367 24.617 33.7108 24.587 33.2848C24.737 33.5338 25.0445 34.0018 25.55 34.6092ZM24.494 31.8635C24.4448 30.8539 24.415 29.8435 24.4048 28.8328C24.5278 28.8372 24.6493 28.8485 24.7648 28.865C26.0907 29.066 26.4373 30.5405 25.4022 31.37C25.1322 31.5837 24.821 31.7405 24.494 31.8635ZM32.3232 36.9275C31.9872 36.5127 31.4525 36.2952 30.761 36.2952C30.4722 36.2952 30.218 36.3342 30.0575 36.3657L27.8113 34.5455C27.998 34.4383 28.124 34.3025 28.193 34.136C28.21 34.0946 28.223 34.0516 28.232 34.0077C30.0125 33.9102 31.5125 33.7325 32.7808 33.515C33.3958 34.2013 34.2995 35.1478 35.498 36.248C34.0257 36.5983 32.798 36.8382 32.3232 36.9275ZM23.3787 28.8597C23.393 29.9465 23.42 31.0362 23.4778 32.1222C23.381 32.1372 23.2858 32.156 23.1905 32.1658C22.868 32.2025 22.562 32.1755 22.271 32.102C22.2342 31.052 22.2102 29.9998 22.1705 28.949C22.574 28.9303 22.9827 28.8905 23.3787 28.8597ZM22.1188 27.911C22.0719 27.0869 21.9943 26.2648 21.8862 25.4465C22.3834 25.3782 22.8889 25.4039 23.3765 25.5222C23.3711 26.289 23.3699 27.0557 23.3728 27.8225C23.0435 27.8405 22.7308 27.872 22.4555 27.8967C22.3435 27.9055 22.2311 27.9102 22.1188 27.911ZM21.0897 27.7798C21.026 27.7625 20.963 27.749 20.8978 27.7273C20.5977 27.6255 20.326 27.4541 20.105 27.227C19.4645 26.6293 20.3435 26.0428 20.8978 25.7645C20.9848 26.432 21.0448 27.1055 21.0897 27.7798ZM29.3675 42.3792C26.1118 40.7158 24.365 38.867 23.6712 38.0105C24.17 37.973 24.6418 37.928 25.109 37.8807L30.4475 41.3457L42.155 38.1297C36.1175 41.7687 30.1528 42.323 29.3675 42.3792ZM39.0365 36.4618C38.9405 36.3657 38.8257 36.2518 38.69 36.1145C40.022 35.711 41.3105 35.243 42.2712 34.7285L42.8555 34.4143L42.263 34.1128C42.1302 34.0445 42.0005 33.9193 41.9983 33.872C41.9998 33.854 42.0522 33.758 42.2795 33.6275L42.713 33.3785L42.3275 33.0575C42.3155 33.0477 41.1133 32.0495 40.691 31.4067L40.5515 31.1968L40.3122 31.2665C40.31 31.2665 40.1045 31.3258 39.8375 31.3258C39.425 31.3265 39.116 31.1915 38.918 30.926L38.699 30.6357L38.4245 30.872C38.4103 30.884 37.5605 31.5807 35.2812 32.2393C35.2062 32.1311 35.1339 32.0211 35.0645 31.9093C37.8282 31.0715 39.2405 30.0575 39.8525 29.5025C40.835 31.628 43.1742 33.3402 44.1898 34.0115C42.5584 34.9987 40.8319 35.8196 39.0365 36.4618Z" fill="white"/>
</svg>
